X:1
T: The Humors of Kilkenny
P:Roche version
R:Jig
Q:180
K:Am
M:6/8
L:1/16
|:g2|e2A2A2 B2A2B2|G2B2d2 d2B2d2|e2^f2g2 d2e2c2|B2G2B2 d2c2B2|
e2A2A2 B2A2B2|G2B2d2 d2B2d2|e2f2g2 d2e2d2|B2A2A2 A4:|
|:g2|e2a2a2 b2a2g2|e2g2g2 g2e2d2|e2^f2g2 d2e2c2|B2G2B2 d2B2d2|
e2a2a2 b2a2g2|e2g2g2 g2e2d2|e2^f2g2 d2e2d2|B2A2A2 A4:|
